X: 1440
T: Ne Kadar Gözyaşı Döktüm
C: Artaki Candan
O: Turkey
F: http://compmusic.upf.edu/node/140
N: acemasiran--sarki--agiraksak--ne_kadar--artaki_candan
N: makam= acemasiran
N: form= sarki
N: usul= agiraksak = 9/4
M: 9/4
L: 1/16
K: C _B   
Q: 1/4=66
%%MIDI tuningsystem comma53
z8 z2c4c2 f8 (3efg(3fed e2f2 g2a2  | \
w:  Ne  ka dar  göz  | 
bagf edc2 z2b4b2 b2a4g2 g2a4g2 gffe  | 
w:  *  *  *  *  *  *  *  ya şı  dök *  *  tüm   | 
f8 z2f4a2 g2f2 e2d2 d2ed edc=B c4  | \
w:  *  o  gö zün  *  *  *  üs  | 
z2c4d2 e2f2 g2a2 g3f egfe f6c2 d2e2  | 
w:  tü *  *  *  *  *  *  *  *  *  ne  *  ben   SAZ  | 
f3g fef2 z2f4f2 f3_e d2g2 g3f f3e e3d  | \
w:  *  *  *  *  *  A cı maz  *  *  *  mı   | 
d3c dcB2 z2B4d2 d3c c3B B3A A3G G3F  | 
w:  *  *  *  *  *  bu  gö zü  *  *  *  göz  | 
F8 z2f4_ed c6d2 e6d2 c3B  | A3G F4 z2A2 G2F2 E2F2 G3F F6c_3/4d c_2/4BAB  | 
w:  *  le rin  *  ey  *  gon  |  *  *  *  ca  *  *  *  *  de *  hen   SAZ  | 
c_3/4def gfed c2c4c2 c8 (3d2c2_2/4B2 (3A2B2c2 B4  | \
w:  *  *  *  *  *  *  *  *  *  Ben  sa nır dım   | 
c2{e}_3/4dc c4 z2c4c2 d6dc _1/4B6cd c_2/4BA^G  | 
w:  *  *  *  *  *  ki  ci han *  *  da   | 
A8 z2_1/4B4c2 c8 _7/8agfe e_3/4ddc c4  | \
w:  *  be ni  sen sin   | 
c2_7/8a4ag g6gf e2f2 g3f f6ga gfef  | 
w:  *  gö *  *  *  *  *  *  *  ze *  ten   SAZ  | 
g8 z2f4g2 g8 (3_7/8a2g2f2 (3e2f2g2 f4  | \
w:  *  An la dım  ki   | 
_1/4b_7/8aag g4 z2f4g2 a6ag g2f4ga gfe^d  | 
w:  *  *  *  *  *  o  gü zel  *  *  *  göz  | 
e8 z2f4_7/8a2 g2f2 f2e2 e2_3/4d2 d2c2 c4  | \
w:  *  le re  kul  *  *  *  ol  | 
z2c4_3/4d2 e2f2 g2_7/8a2 g3f egfe f6c2 =d2e2  | 
w:  du  *  *  *  *  *  *  *  *  *  be *  den   SAZ  | 
f3g fef2 z2f4f2 f3_e d2g2 g3f f3e e3d  | \
w:  *  *  *  *  *  A cı maz  *  *  *  mı   | 
d3c dcB2 z2B4d2 d3c c3B B3A A3G G3F  | 
w:  *  *  *  *  *  bu  gö zü  *  *  *  göz  | 
F8 z2f4_ed c6d2 e6d2 c3B  | A3G F4 z2A2 G2F2 E2F2 G3F F6|
w:  *  le rin  *  ey  *  gon  |  *  *  *  ca  *  *  *  *  de *  hen    | 


